X: 38685
T: Strathearn
R: strathspey
M: 4/4
K: Gminor
g|G<G d>c d<f g2|!turn!f>c (d<f) Tc>B A<F|G<G d>c AcdG|Tf>g {fg}a.A {A}G2G:|
.G(gg>f) g<a g2|f>g (ag) fdfc|.d(gg>!wedge!f) dfga|Tf>g {fg}!wedge!aA {A}G2 G>A|
.G(gg>f) g<a g2|f>g (ag) fdfc|(d{ed}cd<!wedge!f) (g{ag}fg<!wedge!a)|Tf>g {fg}a!wedge!A {A}G2 G||

